; generated by PrusaSlicer 2.4.0+linux-x64-GTK3 on 2022-06-04 at 18:20:40 UTC

; 

; external perimeters extrusion width = 0.60mm
; perimeters extrusion width = 0.50mm
; infill extrusion width = 0.50mm
; solid infill extrusion width = 0.50mm
; top infill extrusion width = 0.45mm
; first layer extrusion width = 0.42mm

M73 P0 R154
M73 Q0 S155
M201 X1000 Y1000 Z200 E5000 ; sets maximum accelerations, mm/sec^2
M203 X200 Y200 Z12 E120 ; sets maximum feedrates, mm/sec
M204 P1250 R1250 T1250 ; sets acceleration (P, T) and retract acceleration (R), mm/sec^2
M205 X8.00 Y8.00 Z0.40 E4.50 ; sets the jerk limits, mm/sec
M205 S0 T0 ; sets the minimum extruding and travel feed rate, mm/sec
M107
;TYPE:Custom
M862.3 P "MK3S" ; printer model check
M862.1 P0.4 ; nozzle diameter check
M115 U3.10.0 ; tell printer latest fw version
G90 ; use absolute coordinates
M83 ; extruder relative mode
M104 S215 ; set extruder temp
M140 S60 ; set bed temp
M190 S60 ; wait for bed temp
M109 S215 ; wait for extruder temp
G28 W ; home all without mesh bed level
G80 ; mesh bed leveling
G1 Z0.2 F720
G1 Y-3 F1000 ; go outside print area
G92 E0
G1 X60 E9 F1000 ; intro line
G1 X100 E12.5 F1000 ; intro line
G92 E0
M221 S95

; Don't change E values below. Excessive value can damage the printer.

M907 E538 ; set extruder motor current
G21 ; set units to millimeters
G90 ; use absolute coordinates
M83 ; use relative distances for extrusion
M900 K0.05 ; Filament gcode LA 1.5
M900 K30 ; Filament gcode LA 1.0
M107
;LAYER_CHANGE
;Z:0.2
;HEIGHT:0.2
;BEFORE_LAYER_CHANGE
G92 E0.0
;0.2


G1 E-.8 F2100
G1 Z.4 F720
;AFTER_LAYER_CHANGE
;0.2
G1 X47.277 Y62.156 F10800
G1 Z.2 F720
G1 E.8 F2100
M204 S800
;TYPE:Skirt/Brim
;WIDTH:0.42
G1 F1200
G1 X48.142 Y61.6 E.03223
G1 X49.036 Y61.276 E.02981
G1 X173.617 Y36.48 E3.98278
G1 X181.033 Y36.448 E.23253
G1 X181.936 Y36.595 E.02868
G1 X183.151 Y37.136 E.04169
G1 X183.864 Y37.709 E.02868
G1 X184.577 Y38.626 E.03644
G1 X210.112 Y82.939 E1.60355
G1 X210.564 Y84.083 E.03859
M73 P0 R153
G1 X210.689 Y85.043 E.03036
G1 X210.6 Y86.008 E.03036
G1 X210.463 Y86.525 E.01676
M73 Q0 S154
G1 X186.372 Y166.447 E2.61727
G1 X185.605 Y167.597 E.04336
G1 X179.026 Y172.98 E.26651
G1 X178.267 Y173.364 E.02669
G1 X177.135 Y173.565 E.03604
G1 X47.16 Y173.565 E4.07528
G1 X45.479 Y172.869 E.05704
G1 X40.015 Y167.405 E.24229
G1 X39.319 Y165.724 E.05704
G1 X39.319 Y82.171 E2.61974
G1 X39.47 Y81.339 E.02653
G1 X45.947 Y64.017 E.57984
G1 X46.566 Y62.898 E.0401
G1 X47.236 Y62.199 E.03035
M204 S1000
; printing object RedoxRev1TopLeft.STL id:0 copy 0
;WIPE_START
G1 F8640
G1 X48.142 Y61.6 E-.25083
G1 X49.036 Y61.276 E-.2195
G1 X50.266 Y61.031 E-.28967
;WIPE_END
G1 E-.04 F2100
G1 Z.6 F720
G1 X126.624 Y109.855 F10800
G1 Z.2 F720
G1 E.8 F2100
M204 S800
;TYPE:Perimeter
G1 F1200
G1 X130.587 Y109.854 E.12424
G1 X130.587 Y108.354 E.04704
G1 X138.161 Y108.354 E.23748
G1 X138.161 Y109.854 E.04704
G1 X142.146 Y109.855 E.12496
G1 X142.146 Y125.399 E.48738
G1 X138.161 Y125.399 E.12496
G1 X138.161 Y126.899 E.04703
G1 X130.587 Y126.899 E.23748
G1 X130.587 Y125.399 E.04703
G1 X126.601 Y125.399 E.12496
G1 X126.601 Y109.892 E.48622
M204 S1000
G1 X126.978 Y110.232 F10800
M204 S800
;TYPE:External perimeter
G1 F1200
G1 X130.964 Y110.231 E.12496
G1 X130.964 Y108.731 E.04703
G1 X137.784 Y108.731 E.21384
G1 X137.784 Y110.231 E.04703
G1 X141.769 Y110.232 E.12496
G1 X141.769 Y125.022 E.46373
G1 X137.784 Y125.022 E.12496
G1 X137.784 Y126.522 E.04703
G1 X130.964 Y126.522 E.21384
G1 X130.964 Y125.022 E.04703
G1 X126.978 Y125.022 E.12496
G1 X126.978 Y110.292 E.46185
M204 S1000
G1 X126.943 Y109.833 F10800
;WIPE_START
G1 F8640
G1 X130.269 Y110.242 E-.76
;WIPE_END
G1 E-.04 F2100
G1 Z.6 F720
G1 X126.601 Y106.326 F10800
G1 Z.2 F720
G1 E.8 F2100
M204 S800
;TYPE:Perimeter
G1 F1200
G1 X126.601 Y90.804 E.48668
G1 X130.587 Y90.804 E.12496
G1 X130.587 Y89.304 E.04703
G1 X138.161 Y89.304 E.23748
G1 X138.161 Y90.804 E.04703
G1 X142.146 Y90.804 E.12496
G1 X142.146 Y106.349 E.4874
G1 X138.161 Y106.349 E.12496
G1 X138.161 Y107.849 E.04703
G1 X130.587 Y107.849 E.23748
G1 X130.587 Y106.349 E.04703
G1 X126.638 Y106.349 E.1238
M204 S1000
G1 X126.978 Y105.972 F10800
M204 S800
;TYPE:External perimeter
G1 F1200
G1 X126.978 Y91.181 E.46375
G1 X130.964 Y91.181 E.12496
G1 X130.964 Y89.681 E.04703
G1 X137.784 Y89.681 E.21384
G1 X137.784 Y91.181 E.04703
G1 X141.769 Y91.181 E.12496
G1 X141.769 Y105.972 E.46375
G1 X137.784 Y105.972 E.12496
G1 X137.784 Y107.472 E.04703
G1 X130.964 Y107.472 E.21384
G1 X130.964 Y105.972 E.04703
G1 X127.038 Y105.972 E.12308
M204 S1000
G1 X126.581 Y105.924 F10800
;WIPE_START
G1 F8640
G1 X127.025 Y102.68 E-.76
;WIPE_END
G1 E-.04 F2100
G1 Z.6 F720
G1 X145.651 Y104.421 F10800
G1 Z.2 F720
G1 E.8 F2100
M204 S800
;TYPE:Perimeter
G1 F1200
G1 X145.651 Y88.9 E.48667
G1 X149.637 Y88.9 E.12496
G1 X149.637 Y87.4 E.04703
G1 X157.211 Y87.4 E.23748
G1 X157.211 Y88.9 E.04703
G1 X161.196 Y88.9 E.12496
G1 X161.196 Y104.444 E.48738
G1 X157.211 Y104.444 E.12496
G1 X157.211 Y105.944 E.04703
G1 X149.637 Y105.944 E.23748
G1 X149.637 Y104.444 E.04703
G1 X145.688 Y104.444 E.1238
M204 S1000
G1 X146.028 Y104.067 F10800
M204 S800
;TYPE:External perimeter
G1 F1200
G1 X146.028 Y89.277 E.46374
G1 X150.014 Y89.277 E.12496
G1 X150.014 Y87.777 E.04703
G1 X156.834 Y87.777 E.21384
G1 X156.834 Y89.277 E.04703
G1 X160.819 Y89.277 E.12496
G1 X160.819 Y104.067 E.46374
G1 X156.834 Y104.067 E.12496
G1 X156.834 Y105.567 E.04703
G1 X150.014 Y105.567 E.21384
G1 X150.014 Y104.067 E.04703
G1 X146.088 Y104.067 E.12308
M204 S1000
G1 X145.631 Y104.019 F10800
;WIPE_START
G1 F8640
G1 X146.075 Y100.776 E-.76
;WIPE_END
G1 E-.04 F2100
G1 Z.6 F720
G1 X141.987 Y66.438 F10800
G1 Z.2 F720
G1 E.8 F2100
M204 S800
;TYPE:Perimeter
G1 F1200
G1 X142.369 Y67.864 E.04631
G1 X146.218 Y66.832 E.12493
G1 X150.243 Y81.848 E.48743
G1 X146.393 Y82.879 E.12496
G1 X146.781 Y84.328 E.04703
G1 X145.1 Y84.779 E.05457
G1 X139.465 Y86.288 E.18292
G1 X139.076 Y84.839 E.04703
G1 X135.227 Y85.87 E.12496
G1 X131.205 Y70.857 E.48732
G1 X135.053 Y69.826 E.12492
G1 X134.665 Y68.377 E.04703
G1 X141.945 Y66.425 E.23632
M204 S1000
G1 X141.714 Y66.877 F10800
M204 S800
;TYPE:External perimeter
G1 F1200
G1 X142.102 Y68.326 E.04703
G1 X145.951 Y67.294 E.12493
G1 X149.781 Y81.582 E.46378
G1 X145.931 Y82.613 E.12496
G1 X146.319 Y84.062 E.04703
G1 X145.002 Y84.414 E.04274
G1 X139.731 Y85.826 E.17109
G1 X139.343 Y84.377 E.04703
G1 X135.494 Y85.408 E.12496
G1 X131.667 Y71.124 E.46367
G1 X135.515 Y70.092 E.12493
G1 X135.127 Y68.643 E.04703
G1 X141.656 Y66.893 E.21195
M204 S1000
G1 X142.092 Y66.746 F10800
;WIPE_START
G1 F8640
G1 X142.102 Y68.326 E-.34663
G1 X143.832 Y67.863 E-.41337
;WIPE_END
G1 E-.04 F2100
G1 Z.6 F720
G1 X123.096 Y74.318 F10800
G1 Z.2 F720
G1 E.8 F2100
M204 S800
;TYPE:Perimeter
G1 F1200
G1 X123.096 Y89.838 E.48663
G1 X119.111 Y89.838 E.12496
G1 X119.111 Y91.338 E.04703
G1 X111.537 Y91.338 E.23748
G1 X111.537 Y89.838 E.04703
G1 X107.551 Y89.838 E.12496
G1 X107.551 Y74.295 E.48735
G1 X111.537 Y74.295 E.12496
G1 X111.537 Y72.795 E.04703
G1 X119.111 Y72.795 E.23748
G1 X119.111 Y74.295 E.04703
G1 X123.059 Y74.295 E.1238
M204 S1000
G1 X122.719 Y74.672 F10800
M204 S800
;TYPE:External perimeter
G1 F1200
G1 X122.719 Y89.461 E.46371
G1 X118.734 Y89.461 E.12496
G1 X118.734 Y90.961 E.04703
G1 X111.914 Y90.961 E.21384
G1 X111.914 Y89.461 E.04703
G1 X107.928 Y89.461 E.12496
G1 X107.928 Y74.672 E.46371
G1 X111.914 Y74.672 E.12496
G1 X111.914 Y73.172 E.04703
G1 X118.734 Y73.172 E.21384
G1 X118.734 Y74.672 E.04703
G1 X122.659 Y74.672 E.12308
M204 S1000
G1 X123.116 Y74.72 F10800
;WIPE_START
G1 F8640
G1 X122.672 Y77.963 E-.76
;WIPE_END
G1 E-.04 F2100
G1 Z.6 F720
G1 X119.111 Y91.868 F10800
G1 Z.2 F720
G1 E.8 F2100
M204 S800
;TYPE:Perimeter
G1 F1200
G1 X119.111 Y93.345 E.04631
G1 X123.096 Y93.345 E.12496
G1 X123.096 Y108.888 E.48735
G1 X119.111 Y108.888 E.12496
G1 X119.111 Y110.388 E.04703
G1 X111.537 Y110.388 E.23748
G1 X111.537 Y108.888 E.04703
G1 X107.551 Y108.888 E.12496
G1 X107.551 Y93.345 E.48735
G1 X111.537 Y93.345 E.12496
G1 X111.537 Y91.845 E.04703
G1 X119.074 Y91.845 E.23632
M204 S1000
G1 X118.734 Y92.222 F10800
M204 S800
;TYPE:External perimeter
G1 F1200
G1 X118.734 Y93.722 E.04703
G1 X122.719 Y93.722 E.12496
M73 P0 R152
G1 X122.719 Y108.511 E.46371
G1 X118.734 Y108.511 E.12496
M73 Q0 S153
G1 X118.734 Y110.011 E.04703
G1 X111.914 Y110.011 E.21384
G1 X111.914 Y108.511 E.04703
G1 X107.928 Y108.511 E.12496
G1 X107.928 Y93.722 E.46371
G1 X111.914 Y93.722 E.12496
G1 X111.914 Y92.222 E.04703
G1 X118.674 Y92.222 E.21196
M204 S1000
G1 X119.133 Y92.193 F10800
;WIPE_START
G1 F8640
G1 X118.734 Y93.722 E-.34663
G1 X120.524 Y93.722 E-.41337
;WIPE_END
G1 E-.04 F2100
G1 Z.6 F720
G1 X119.111 Y110.918 F10800
G1 Z.2 F720
G1 E.8 F2100
M204 S800
;TYPE:Perimeter
G1 F1200
G1 X119.111 Y112.395 E.04631
G1 X123.096 Y112.395 E.12496
G1 X123.096 Y127.938 E.48735
G1 X119.111 Y127.938 E.12496
G1 X119.111 Y129.438 E.04703
G1 X111.537 Y129.438 E.23748
G1 X111.537 Y127.938 E.04703
G1 X107.551 Y127.938 E.12496
G1 X107.551 Y112.395 E.48735
G1 X111.537 Y112.395 E.12496
G1 X111.537 Y110.895 E.04703
G1 X119.074 Y110.895 E.23632
M204 S1000
G1 X118.734 Y111.272 F10800
M204 S800
;TYPE:External perimeter
G1 F1200
G1 X118.734 Y112.772 E.04703
G1 X122.719 Y112.772 E.12496
G1 X122.719 Y127.561 E.46371
G1 X118.734 Y127.561 E.12496
G1 X118.734 Y129.061 E.04703
G1 X111.914 Y129.061 E.21384
G1 X111.914 Y127.561 E.04703
G1 X107.928 Y127.561 E.12496
G1 X107.928 Y112.772 E.46371
G1 X111.914 Y112.772 E.12496
G1 X111.914 Y111.272 E.04703
G1 X118.674 Y111.272 E.21196
M204 S1000
G1 X119.133 Y111.243 F10800
;WIPE_START
G1 F8640
G1 X118.734 Y112.772 E-.34663
G1 X120.524 Y112.772 E-.41337
;WIPE_END
G1 E-.04 F2100
G1 Z.6 F720
G1 X119.111 Y129.968 F10800
G1 Z.2 F720
G1 E.8 F2100
M204 S800
;TYPE:Perimeter
G1 F1200
G1 X119.111 Y131.445 E.04631
G1 X123.096 Y131.445 E.12496
G1 X123.096 Y146.988 E.48735
G1 X119.111 Y146.988 E.12496
G1 X119.111 Y148.488 E.04703
G1 X111.537 Y148.488 E.23748
G1 X111.537 Y146.988 E.04703
G1 X107.551 Y146.988 E.12496
G1 X107.551 Y131.445 E.48735
G1 X111.537 Y131.445 E.12496
G1 X111.537 Y129.945 E.04703
G1 X119.074 Y129.945 E.23632
M204 S1000
G1 X118.734 Y130.322 F10800
M204 S800
;TYPE:External perimeter
G1 F1200
G1 X118.734 Y131.822 E.04703
G1 X122.719 Y131.822 E.12496
G1 X122.719 Y146.611 E.46371
G1 X118.734 Y146.611 E.12496
G1 X118.734 Y148.111 E.04703
G1 X111.914 Y148.111 E.21384
G1 X111.914 Y146.611 E.04703
G1 X107.928 Y146.611 E.12496
M73 P1 R152
G1 X107.928 Y131.822 E.46371
M73 Q1 S153
G1 X111.914 Y131.822 E.12496
G1 X111.914 Y130.322 E.04703
G1 X118.674 Y130.322 E.21196
M204 S1000
G1 X119.133 Y130.293 F10800
;WIPE_START
G1 F8640
G1 X118.734 Y131.822 E-.34663
G1 X120.524 Y131.822 E-.41337
;WIPE_END
G1 E-.04 F2100
G1 Z.6 F720
G1 X119.111 Y149.018 F10800
G1 Z.2 F720
G1 E.8 F2100
M204 S800
;TYPE:Perimeter
G1 F1200
G1 X119.111 Y150.495 E.04631
G1 X123.096 Y150.495 E.12496
G1 X123.096 Y166.038 E.48735
G1 X119.111 Y166.038 E.12496
G1 X119.111 Y167.538 E.04703
G1 X111.537 Y167.538 E.23748
G1 X111.537 Y166.038 E.04703
G1 X107.551 Y166.038 E.12496
G1 X107.551 Y150.495 E.48735
G1 X111.537 Y150.495 E.12496
G1 X111.537 Y148.995 E.04703
G1 X119.074 Y148.995 E.23632
M204 S1000
G1 X118.734 Y149.372 F10800
M204 S800
;TYPE:External perimeter
G1 F1200
G1 X118.734 Y150.872 E.04703
G1 X122.719 Y150.872 E.12496
G1 X122.719 Y165.661 E.46371
G1 X118.734 Y165.661 E.12496
G1 X118.734 Y167.161 E.04703
G1 X111.914 Y167.161 E.21384
G1 X111.914 Y165.661 E.04703
G1 X107.928 Y165.661 E.12496
G1 X107.928 Y150.872 E.46371
G1 X111.914 Y150.872 E.12496
G1 X111.914 Y149.372 E.04703
G1 X118.674 Y149.372 E.21196
M204 S1000
G1 X119.133 Y149.343 F10800
;WIPE_START
G1 F8640
G1 X118.734 Y150.872 E-.34663
G1 X120.524 Y150.872 E-.41337
;WIPE_END
G1 E-.04 F2100
G1 Z.6 F720
G1 X100.061 Y146.477 F10800
G1 Z.2 F720
G1 E.8 F2100
M204 S800
;TYPE:Perimeter
G1 F1200
G1 X100.061 Y147.954 E.04631
G1 X104.046 Y147.954 E.12496
G1 X104.046 Y163.499 E.4874
G1 X100.061 Y163.499 E.12496
G1 X100.061 Y164.999 E.04703
G1 X92.487 Y164.999 E.23748
G1 X92.487 Y163.499 E.04703
G1 X88.501 Y163.499 E.12496
G1 X88.501 Y147.954 E.4874
G1 X92.487 Y147.954 E.12496
G1 X92.487 Y146.454 E.04703
G1 X100.024 Y146.454 E.23632
M204 S1000
G1 X99.684 Y146.831 F10800
M204 S800
;TYPE:External perimeter
G1 F1200
G1 X99.684 Y148.331 E.04703
G1 X103.669 Y148.331 E.12496
G1 X103.669 Y163.122 E.46375
G1 X99.684 Y163.122 E.12496
G1 X99.684 Y164.622 E.04703
G1 X92.864 Y164.622 E.21384
G1 X92.864 Y163.122 E.04703
G1 X88.878 Y163.122 E.12496
G1 X88.878 Y148.331 E.46375
G1 X92.864 Y148.331 E.12496
G1 X92.864 Y146.831 E.04703
G1 X99.624 Y146.831 E.21196
M204 S1000
G1 X100.083 Y146.802 F10800
G1 X100.038 Y145.949
M204 S800
;TYPE:Perimeter
G1 F1200
G1 X92.487 Y145.949 E.23676
G1 X92.487 Y144.449 E.04703
G1 X88.501 Y144.449 E.12496
G1 X88.501 Y128.904 E.4874
G1 X92.487 Y128.904 E.12496
G1 X92.487 Y127.404 E.04703
G1 X100.061 Y127.404 E.23748
G1 X100.061 Y128.904 E.04703
G1 X104.046 Y128.904 E.12496
G1 X104.046 Y144.449 E.4874
G1 X100.061 Y144.449 E.12496
G1 X100.061 Y145.912 E.04587
M204 S1000
G1 X99.684 Y145.572 F10800
M204 S800
;TYPE:External perimeter
G1 F1200
G1 X92.864 Y145.572 E.21384
G1 X92.864 Y144.072 E.04703
G1 X88.878 Y144.072 E.12496
G1 X88.878 Y129.281 E.46375
G1 X92.864 Y129.281 E.12496
G1 X92.864 Y127.781 E.04703
G1 X99.684 Y127.781 E.21384
G1 X99.684 Y129.281 E.04703
G1 X103.669 Y129.281 E.12496
G1 X103.669 Y144.072 E.46375
G1 X99.684 Y144.072 E.12496
G1 X99.684 Y145.512 E.04515
M204 S1000
G1 X99.527 Y145.94 F10800
;WIPE_START
G1 F8640
G1 X96.392 Y145.541 E-.76
;WIPE_END
G1 E-.04 F2100
G1 Z.6 F720
G1 X100.038 Y126.899 F10800
G1 Z.2 F720
G1 E.8 F2100
M204 S800
;TYPE:Perimeter
G1 F1200
G1 X92.487 Y126.899 E.23676
G1 X92.487 Y125.399 E.04703
G1 X88.501 Y125.399 E.12496
G1 X88.501 Y109.855 E.48738
G1 X92.487 Y109.854 E.12496
G1 X92.487 Y108.354 E.04704
G1 X100.061 Y108.354 E.23748
G1 X100.061 Y109.854 E.04704
G1 X104.046 Y109.855 E.12496
G1 X104.046 Y125.399 E.48738
G1 X100.061 Y125.399 E.12496
G1 X100.061 Y126.862 E.04587
M204 S1000
G1 X99.684 Y126.522 F10800
M204 S800
;TYPE:External perimeter
G1 F1200
G1 X92.864 Y126.522 E.21384
G1 X92.864 Y125.022 E.04703
G1 X88.878 Y125.022 E.12496
G1 X88.878 Y110.232 E.46373
G1 X92.864 Y110.231 E.12496
G1 X92.864 Y108.731 E.04703
G1 X99.684 Y108.731 E.21384
G1 X99.684 Y110.231 E.04703
G1 X103.669 Y110.232 E.12496
G1 X103.669 Y125.022 E.46373
G1 X99.684 Y125.022 E.12496
G1 X99.684 Y126.462 E.04515
M204 S1000
G1 X99.527 Y126.89 F10800
;WIPE_START
G1 F8640
G1 X96.392 Y126.491 E-.76
;WIPE_END
G1 E-.04 F2100
G1 Z.6 F720
G1 X100.038 Y107.849 F10800
G1 Z.2 F720
G1 E.8 F2100
M204 S800
;TYPE:Perimeter
G1 F1200
G1 X92.487 Y107.849 E.23676
G1 X92.487 Y106.349 E.04703
G1 X88.501 Y106.349 E.12496
G1 X88.501 Y90.804 E.4874
G1 X92.487 Y90.804 E.12496
G1 X92.487 Y89.304 E.04703
G1 X100.061 Y89.304 E.23748
G1 X100.061 Y90.804 E.04703
G1 X104.046 Y90.804 E.12496
G1 X104.046 Y106.349 E.4874
G1 X100.061 Y106.349 E.12496
G1 X100.061 Y107.812 E.04587
M204 S1000
G1 X99.684 Y107.472 F10800
M204 S800
;TYPE:External perimeter
G1 F1200
G1 X92.864 Y107.472 E.21384
G1 X92.864 Y105.972 E.04703
G1 X88.878 Y105.972 E.12496
G1 X88.878 Y91.181 E.46375
G1 X92.864 Y91.181 E.12496
G1 X92.864 Y89.681 E.04703
G1 X99.684 Y89.681 E.21384
G1 X99.684 Y91.181 E.04703
G1 X103.669 Y91.181 E.12496
G1 X103.669 Y105.972 E.46375
G1 X99.684 Y105.972 E.12496
G1 X99.684 Y107.412 E.04515
M204 S1000
G1 X99.527 Y107.84 F10800
;WIPE_START
G1 F8640
G1 X96.392 Y107.441 E-.76
;WIPE_END
G1 E-.04 F2100
G1 Z.6 F720
G1 X100.038 Y88.799 F10800
G1 Z.2 F720
G1 E.8 F2100
M204 S800
;TYPE:Perimeter
G1 F1200
G1 X92.487 Y88.799 E.23676
G1 X92.487 Y87.299 E.04703
G1 X88.501 Y87.299 E.12496
G1 X88.501 Y71.754 E.4874
G1 X92.487 Y71.754 E.12496
G1 X92.487 Y70.254 E.04703
G1 X100.061 Y70.254 E.23748
G1 X100.061 Y71.754 E.04703
G1 X104.046 Y71.754 E.12496
G1 X104.046 Y87.299 E.4874
G1 X100.061 Y87.299 E.12496
G1 X100.061 Y88.762 E.04587
M204 S1000
G1 X99.684 Y88.422 F10800
M204 S800
;TYPE:External perimeter
