; generated by PrusaSlicer 2.4.0+linux-x64-GTK3 on 2022-06-17 at 23:03:18 UTC

; 

; external perimeters extrusion width = 0.45mm
; perimeters extrusion width = 0.45mm
; infill extrusion width = 0.45mm
; solid infill extrusion width = 0.45mm
; top infill extrusion width = 0.40mm
; first layer extrusion width = 0.42mm

M73 P0 R116
M73 Q0 S117
M201 X1000 Y1000 Z200 E5000 ; sets maximum accelerations, mm/sec^2
M203 X200 Y200 Z12 E120 ; sets maximum feedrates, mm/sec
M204 P1250 R1250 T1250 ; sets acceleration (P, T) and retract acceleration (R), mm/sec^2
M205 X8.00 Y8.00 Z0.40 E4.50 ; sets the jerk limits, mm/sec
M205 S0 T0 ; sets the minimum extruding and travel feed rate, mm/sec
M107
;TYPE:Custom
M862.3 P "MK3S" ; printer model check
M862.1 P0.4 ; nozzle diameter check
M115 U3.10.0 ; tell printer latest fw version
G90 ; use absolute coordinates
M83 ; extruder relative mode
M104 S215 ; set extruder temp
M140 S60 ; set bed temp
M190 S60 ; wait for bed temp
M109 S215 ; wait for extruder temp
G28 W ; home all without mesh bed level
G80 ; mesh bed leveling
G1 Z0.2 F720
G1 Y-3 F1000 ; go outside print area
G92 E0
G1 X60 E9 F1000 ; intro line
G1 X100 E12.5 F1000 ; intro line
G92 E0
M221 S95

; Don't change E values below. Excessive value can damage the printer.
M907 E430 ; set extruder motor current
G21 ; set units to millimeters
G90 ; use absolute coordinates
M83 ; use relative distances for extrusion
M900 K0.05 ; Filament gcode LA 1.5
M900 K30 ; Filament gcode LA 1.0
M107
;LAYER_CHANGE
;Z:0.2
;HEIGHT:0.2
;BEFORE_LAYER_CHANGE
G92 E0.0
;0.2


G1 E-.8 F2100
M73 Q0 S116
G1 Z.4 F720
;AFTER_LAYER_CHANGE
;0.2
G1 X42.81 Y61.824 F10800
G1 Z.2 F720
G1 E.8 F2100
M204 S800
;TYPE:Skirt/Brim
;WIDTH:0.42
G1 F1200
G1 X44.076 Y61.392 E.04196
G1 X180.776 Y38.34 E4.34665
G1 X181.753 Y38.294 E.03067
G1 X182.828 Y38.497 E.03429
G1 X183.873 Y38.996 E.0363
G1 X184.707 Y39.703 E.03428
G1 X185.276 Y40.471 E.02996
G1 X208.968 Y81.505 E1.48567
G1 X209.405 Y82.573 E.03618
G1 X209.55 Y83.593 E.0323
G1 X209.404 Y84.829 E.03901
G1 X185.3 Y168.699 E2.73614
G1 X184.803 Y169.732 E.03595
G1 X184.09 Y170.571 E.0345
G1 X183.489 Y171.03 E.02372
G1 X182.818 Y171.38 E.02372
G1 X182.097 Y171.608 E.02371
G1 X181.142 Y171.718 E.03015
G1 X44.827 Y171.718 E4.27407
G1 X43.865 Y171.606 E.03038
G1 X43.138 Y171.374 E.0239
G1 X42.464 Y171.02 E.0239
G1 X41.614 Y170.307 E.03477
G1 X41.148 Y169.704 E.0239
G1 X40.793 Y169.029 E.0239
G1 X40.561 Y168.303 E.0239
G1 X40.45 Y167.341 E.03038
G1 X40.45 Y65.704 E3.18675
G1 X40.561 Y64.744 E.03029
G1 X40.791 Y64.02 E.02383
G1 X41.343 Y63.062 E.03467
G1 X41.853 Y62.498 E.02383
G1 X42.761 Y61.859 E.03483
M204 S1000
; printing object Plate.stl id:0 copy 0
;WIPE_START
G1 F8640
G1 X44.076 Y61.392 E-.32232
G1 X45.945 Y61.077 E-.43768
;WIPE_END
G1 E-.04 F2100
G1 Z.6 F720
G1 X157.848 Y162.943 F10800
G1 Z.2 F720
G1 E.8 F2100
M204 S800
;TYPE:External perimeter
G1 F1200
G1 X158.23 Y162.529 E.01767
G1 X158.674 Y162.183 E.01767
G1 X159.17 Y161.915 E.01767
G1 X159.703 Y161.732 E.01767
G1 X160.258 Y161.639 E.01767
G1 X160.822 Y161.639 E.01767
G1 X161.377 Y161.732 E.01767
G1 X161.91 Y161.915 E.01767
G1 X162.406 Y162.183 E.01767
G1 X162.851 Y162.529 E.01767
G1 X163.232 Y162.943 E.01767
G1 X163.54 Y163.415 E.01767
G1 X163.767 Y163.931 E.01767
G1 X163.892 Y164.425 E.01599
G1 X163.952 Y165.037 E.01927
G1 X163.905 Y165.6 E.01772
G1 X163.767 Y166.146 E.01767
G1 X163.562 Y166.613 E.01599
G1 X163.233 Y167.133 E.01928
G1 X162.851 Y167.548 E.01771
G1 X162.406 Y167.895 E.01767
G1 X161.91 Y168.163 E.01767
G1 X161.377 Y168.346 E.01767
G1 X160.822 Y168.438 E.01767
G1 X160.258 Y168.438 E.01767
G1 X159.703 Y168.346 E.01767
G1 X159.17 Y168.163 E.01767
G1 X158.674 Y167.895 E.01767
G1 X158.23 Y167.548 E.01767
G1 X157.848 Y167.134 E.01767
G1 X157.54 Y166.662 E.01767
G1 X157.313 Y166.146 E.01767
G1 X157.175 Y165.6 E.01767
G1 X157.129 Y165.039 E.01767
G1 X157.175 Y164.477 E.01767
G1 X157.313 Y163.931 E.01767
G1 X157.54 Y163.415 E.01767
G1 X157.815 Y162.993 E.01578
M204 S1000
G1 X157.697 Y162.573 F10800
;WIPE_START
M73 P0 R115
G1 F8640
G1 X158.23 Y162.529 E-.14378
G1 X158.674 Y162.183 E-.1301
G1 X159.17 Y161.915 E-.1301
G1 X159.703 Y161.732 E-.13009
G1 X160.258 Y161.639 E-.1301
G1 X160.673 Y161.639 E-.09584
;WIPE_END
G1 E-.04 F2100
G1 Z.6 F720
G1 X142.261 Y124.676 F10800
G1 Z.2 F720
G1 E.8 F2100
M204 S800
;TYPE:Perimeter
G1 F1200
G1 X126.739 Y124.676 E.48668
G1 X126.739 Y109.132 E.4874
G1 X142.284 Y109.132 E.4874
G1 X142.284 Y124.639 E.48624
M204 S1000
G1 X141.907 Y124.299 F10800
M204 S800
;TYPE:External perimeter
G1 F1200
G1 X127.116 Y124.299 E.46375
G1 X127.116 Y109.509 E.46375
G1 X141.907 Y109.509 E.46375
G1 X141.907 Y124.239 E.46187
M204 S1000
G1 X142.01 Y124.686 F10800
;WIPE_START
G1 F8640
G1 X138.615 Y124.253 E-.76
;WIPE_END
G1 E-.04 F2100
G1 Z.6 F720
G1 X142.261 Y105.626 F10800
G1 Z.2 F720
G1 E.8 F2100
M204 S800
;TYPE:Perimeter
G1 F1200
G1 X126.739 Y105.626 E.48668
G1 X126.739 Y90.082 E.4874
G1 X142.284 Y90.082 E.4874
G1 X142.284 Y105.589 E.48624
M204 S1000
G1 X141.907 Y105.249 F10800
M204 S800
;TYPE:External perimeter
G1 F1200
G1 X127.116 Y105.249 E.46375
G1 X127.116 Y90.459 E.46375
G1 X141.907 Y90.459 E.46375
G1 X141.907 Y105.189 E.46187
M204 S1000
G1 X142.01 Y105.636 F10800
;WIPE_START
G1 F8640
G1 X138.615 Y105.203 E-.76
;WIPE_END
G1 E-.04 F2100
G1 Z.6 F720
G1 X145.789 Y103.699 F10800
G1 Z.2 F720
G1 E.8 F2100
M204 S800
;TYPE:Perimeter
G1 F1200
G1 X145.789 Y88.177 E.48667
G1 X161.334 Y88.177 E.4874
G1 X161.334 Y103.722 E.48738
G1 X145.826 Y103.722 E.48624
M204 S1000
G1 X146.166 Y103.345 F10800
M204 S800
;TYPE:External perimeter
G1 F1200
G1 X146.166 Y88.554 E.46374
G1 X160.957 Y88.554 E.46375
G1 X160.957 Y103.345 E.46374
G1 X146.226 Y103.345 E.46187
M204 S1000
G1 X145.779 Y103.448 F10800
;WIPE_START
G1 F8640
G1 X146.212 Y100.053 E-.76
;WIPE_END
G1 E-.04 F2100
G1 Z.6 F720
G1 X146.566 Y107.227 F10800
G1 Z.2 F720
G1 E.8 F2100
M204 S800
;TYPE:Perimeter
G1 F1200
G1 X161.334 Y107.227 E.46304
G1 X161.334 Y122.772 E.48738
G1 X145.789 Y122.772 E.4874
G1 X145.789 Y107.227 E.48738
G1 X146.506 Y107.227 E.02248
M204 S1000
G1 X146.166 Y107.604 F10800
M204 S800
;TYPE:External perimeter
G1 F1200
G1 X160.957 Y107.604 E.46375
G1 X160.957 Y122.395 E.46374
G1 X146.166 Y122.395 E.46375
G1 X146.166 Y107.664 E.46186
M204 S1000
G1 X146.062 Y107.218 F10800
;WIPE_START
G1 F8640
G1 X149.457 Y107.651 E-.76
;WIPE_END
G1 E-.04 F2100
G1 Z.6 F720
G1 X146.566 Y126.277 F10800
G1 Z.2 F720
G1 E.8 F2100
M204 S800
;TYPE:Perimeter
M73 Q0 S115
G1 F1200
G1 X161.334 Y126.277 E.46304
G1 X161.334 Y141.822 E.48738
G1 X145.789 Y141.822 E.4874
G1 X145.789 Y126.277 E.48738
G1 X146.506 Y126.277 E.02248
M204 S1000
G1 X146.166 Y126.654 F10800
M204 S800
;TYPE:External perimeter
G1 F1200
G1 X160.957 Y126.654 E.46375
G1 X160.957 Y141.445 E.46374
G1 X146.166 Y141.445 E.46375
G1 X146.166 Y126.714 E.46186
M204 S1000
G1 X146.062 Y126.268 F10800
;WIPE_START
M73 P1 R115
M73 Q1 S115
G1 F8640
G1 X149.457 Y126.701 E-.76
;WIPE_END
G1 E-.04 F2100
G1 Z.6 F720
G1 X146.566 Y145.327 F10800
G1 Z.2 F720
G1 E.8 F2100
M204 S800
;TYPE:Perimeter
G1 F1200
G1 X161.334 Y145.327 E.46304
G1 X161.334 Y160.872 E.48738
G1 X145.789 Y160.872 E.4874
G1 X145.789 Y145.327 E.48738
G1 X146.506 Y145.327 E.02248
M204 S1000
G1 X146.166 Y145.704 F10800
M204 S800
;TYPE:External perimeter
G1 F1200
G1 X160.957 Y145.704 E.46375
G1 X160.957 Y160.495 E.46374
G1 X146.166 Y160.495 E.46375
G1 X146.166 Y145.764 E.46186
M204 S1000
G1 X146.062 Y145.318 F10800
;WIPE_START
G1 F8640
G1 X149.457 Y145.751 E-.76
;WIPE_END
G1 E-.04 F2100
G1 Z.6 F720
G1 X142.284 Y147.254 F10800
G1 Z.2 F720
G1 E.8 F2100
M204 S800
;TYPE:Perimeter
G1 F1200
G1 X142.284 Y162.776 E.48668
G1 X126.739 Y162.776 E.4874
G1 X126.739 Y147.231 E.4874
G1 X142.247 Y147.231 E.48624
M204 S1000
G1 X141.907 Y147.609 F10800
M204 S800
;TYPE:External perimeter
G1 F1200
G1 X141.907 Y162.399 E.46375
G1 X127.116 Y162.399 E.46375
G1 X127.116 Y147.609 E.46375
G1 X141.847 Y147.609 E.46187
M204 S1000
G1 X142.293 Y147.505 F10800
;WIPE_START
G1 F8640
G1 X141.86 Y150.9 E-.76
;WIPE_END
G1 E-.04 F2100
G1 Z.6 F720
G1 X142.261 Y143.726 F10800
G1 Z.2 F720
G1 E.8 F2100
M204 S800
;TYPE:Perimeter
G1 F1200
G1 X126.739 Y143.726 E.48668
G1 X126.739 Y128.182 E.4874
G1 X142.284 Y128.182 E.4874
G1 X142.284 Y143.689 E.48624
M204 S1000
G1 X141.907 Y143.349 F10800
M204 S800
;TYPE:External perimeter
G1 F1200
G1 X127.116 Y143.349 E.46375
G1 X127.116 Y128.559 E.46375
G1 X141.907 Y128.559 E.46375
G1 X141.907 Y143.289 E.46187
M204 S1000
G1 X142.01 Y143.736 F10800
;WIPE_START
G1 F8640
G1 X138.615 Y143.303 E-.76
;WIPE_END
G1 E-.04 F2100
G1 Z.6 F720
G1 X180.384 Y135.825 F10800
G1 Z.2 F720
G1 E.8 F2100
M204 S800
;TYPE:Perimeter
G1 F1200
G1 X180.384 Y151.347 E.48667
G1 X164.839 Y151.347 E.4874
G1 X164.839 Y135.802 E.48738
G1 X180.347 Y135.802 E.48624
M204 S1000
G1 X180.007 Y136.179 F10800
M204 S800
;TYPE:External perimeter
G1 F1200
G1 X180.007 Y150.97 E.46374
G1 X165.216 Y150.97 E.46375
G1 X165.216 Y136.179 E.46374
G1 X179.947 Y136.179 E.46187
M204 S1000
G1 X180.393 Y136.076 F10800
;WIPE_START
M73 P1 R114
G1 F8640
G1 X179.96 Y139.471 E-.76
;WIPE_END
G1 E-.04 F2100
G1 Z.6 F720
G1 X180.361 Y127.216 F10800
G1 Z.2 F720
G1 E.8 F2100
M204 S800
;TYPE:Perimeter
G1 F1200
G1 X164.839 Y127.216 E.48668
G1 X164.839 Y111.673 E.48736
G1 X180.384 Y111.673 E.4874
G1 X180.384 Y127.179 E.4862
M204 S1000
G1 X180.007 Y126.839 F10800
M204 S800
;TYPE:External perimeter
G1 F1200
G1 X165.216 Y126.839 E.46375
G1 X165.216 Y112.05 E.46371
G1 X180.007 Y112.05 E.46375
G1 X180.007 Y126.779 E.46183
M204 S1000
G1 X180.11 Y127.225 F10800
;WIPE_START
G1 F8640
G1 X176.715 Y126.792 E-.76
;WIPE_END
G1 E-.04 F2100
G1 Z.6 F720
G1 X173.187 Y99.545 F10800
G1 Z.2 F720
G1 E.8 F2100
M204 S800
;TYPE:Perimeter
G1 F1200
G1 X165.803 Y86.757 E.463
G1 X179.264 Y78.984 E.48736
G1 X187.037 Y92.445 E.48737
G1 X173.576 Y100.218 E.48736
G1 X173.217 Y99.597 E.02248
M204 S1000
G1 X173.714 Y99.702 F10800
M204 S800
;TYPE:External perimeter
G1 F1200
G1 X166.319 Y86.895 E.46372
G1 X179.126 Y79.5 E.46371
G1 X186.522 Y92.307 E.46372
G1 X173.766 Y99.672 E.46183
M204 S1000
G1 X173.431 Y99.985 F10800
;WIPE_START
G1 F8640
G1 X172.109 Y96.829 E-.76
;WIPE_END
G1 E-.04 F2100
G1 Z.6 F720
G1 X189.696 Y90.02 F10800
G1 Z.2 F720
G1 E.8 F2100
M204 S800
;TYPE:Perimeter
G1 F1200
G1 X182.312 Y77.232 E.463
G1 X195.775 Y69.459 E.48741
G1 X203.546 Y82.92 E.48735
G1 X190.085 Y90.693 E.48736
G1 X189.726 Y90.072 E.02248
M204 S1000
G1 X190.223 Y90.177 F10800
M204 S800
;TYPE:External perimeter
G1 F1200
G1 X182.827 Y77.37 E.46372
G1 X195.637 Y69.974 E.46376
G1 X203.031 Y82.782 E.4637
G1 X190.275 Y90.147 E.46184
M204 S1000
G1 X189.94 Y90.46 F10800
;WIPE_START
G1 F8640
G1 X188.617 Y87.304 E-.76
;WIPE_END
G1 E-.04 F2100
G1 Z.6 F720
G1 X175.024 Y70.153 F10800
G1 Z.2 F720
G1 E.8 F2100
M204 S800
;TYPE:Perimeter
G1 F1200
G1 X175.117 Y70.051 E.00434
G1 X175.612 Y69.664 E.01969
G1 X176.163 Y69.366 E.01964
G1 X176.755 Y69.163 E.01963
G1 X177.372 Y69.06 E.01963
G1 X177.629 Y69.06 E.00807
G1 X170.248 Y56.276 E.46286
G1 X183.709 Y48.503 E.48737
G1 X191.481 Y61.966 E.4874
G1 X178.866 Y69.249 E.45674
G1 X179.207 Y69.366 E.01133
G1 X179.758 Y69.664 E.01963
G1 X180.252 Y70.048 E.01963
G1 X180.676 Y70.509 E.01963
G1 X181.018 Y71.033 E.01962
G1 X181.269 Y71.606 E.01963
G1 X181.423 Y72.213 E.01962
G1 X181.475 Y72.837 E.01963
G1 X181.423 Y73.46 E.01963
G1 X181.269 Y74.067 E.01962
G1 X181.018 Y74.64 E.01963
G1 X180.676 Y75.164 E.01962
G1 X180.252 Y75.625 E.01963
G1 X179.758 Y76.009 E.01963
G1 X179.207 Y76.307 E.01963
G1 X178.615 Y76.51 E.01962
G1 X177.998 Y76.613 E.01963
G1 X177.372 Y76.613 E.01962
G1 X176.755 Y76.51 E.01963
G1 X176.163 Y76.307 E.01962
G1 X175.612 Y76.009 E.01963
G1 X175.118 Y75.625 E.01962
G1 X174.694 Y75.164 E.01963
G1 X174.352 Y74.64 E.01963
G1 X174.101 Y74.067 E.01963
G1 X173.947 Y73.46 E.01964
G1 X173.896 Y72.834 E.01969
G1 X173.952 Y72.206 E.01977
G1 X174.001 Y72.026 E.00586
G1 X172.998 Y72.63 E.03673
G1 X161.51 Y79.262 E.41591
G1 X153.739 Y65.801 E.48734
G1 X167.2 Y58.028 E.48736
G1 X173.832 Y69.517 E.41594
M73 Q1 S114
G1 X174.529 Y70.778 E.04518
G1 X174.693 Y70.517 E.00966
G1 X174.984 Y70.197 E.01355
M204 S1000
;WIPE_START
G1 F8640
G1 X175.117 Y70.051 E-.04579
G1 X175.612 Y69.664 E-.14501
G1 X176.163 Y69.366 E-.14462
G1 X176.755 Y69.163 E-.14453
G1 X177.372 Y69.06 E-.14453
G1 X177.629 Y69.06 E-.05941
G1 X177.465 Y68.774 E-.07612
;WIPE_END
G1 E-.04 F2100
G1 Z.6 F720
G1 X174.41 Y71.34 F10800
G1 Z.2 F720
G1 E.8 F2100
M204 S800
;TYPE:External perimeter
G1 F1200
G1 X172.806 Y72.305 E.05867
G1 X161.648 Y78.747 E.40398
G1 X154.254 Y65.939 E.46369
G1 X167.062 Y58.543 E.46372
G1 X173.504 Y69.703 E.40401
G1 X174.38 Y71.288 E.05679
M204 S1000
G1 X174.613 Y71.684 F10800
G1 X174.696 Y71.222
M204 S800
G1 F1200
G1 X174.995 Y70.746 E.01764
G1 X175.374 Y70.328 E.01771
G1 X175.819 Y69.981 E.01769
G1 X176.315 Y69.713 E.01767
G1 X176.848 Y69.53 E.01767
G1 X177.403 Y69.437 E.01767
G1 X177.967 Y69.437 E.01767
G1 X178.522 Y69.53 E.01767
G1 X179.055 Y69.713 E.01767
G1 X179.551 Y69.981 E.01767
G1 X179.996 Y70.327 E.01767
G1 X180.377 Y70.741 E.01767
G1 X180.685 Y71.213 E.01767
G1 X180.912 Y71.729 E.01767
G1 X181.05 Y72.275 E.01767
G1 X181.096 Y72.837 E.01767
G1 X181.05 Y73.398 E.01767
G1 X180.912 Y73.944 E.01767
G1 X180.685 Y74.46 E.01767
G1 X180.377 Y74.932 E.01767
G1 X179.996 Y75.346 E.01767
G1 X179.551 Y75.692 E.01767
G1 X179.055 Y75.961 E.01767
G1 X178.522 Y76.144 E.01767
G1 X177.967 Y76.236 E.01767
G1 X177.403 Y76.236 E.01767
G1 X176.848 Y76.144 E.01767
G1 X176.315 Y75.961 E.01767
G1 X175.819 Y75.692 E.01767
G1 X175.375 Y75.346 E.01767
G1 X174.993 Y74.932 E.01767
G1 X174.685 Y74.46 E.01767
G1 X174.458 Y73.944 E.01767
G1 X174.32 Y73.398 E.01767
G1 X174.274 Y72.836 E.01769
G1 X174.325 Y72.273 E.01771
G1 X174.459 Y71.782 E.01596
G1 X174.672 Y71.278 E.01717
M204 S1000
G1 X174.483 Y70.884 F10800
;WIPE_START
G1 F8640
G1 X174.995 Y70.746 E-.14358
G1 X175.374 Y70.328 E-.1304
G1 X175.819 Y69.981 E-.13026
G1 X176.315 Y69.713 E-.13013
G1 X176.848 Y69.53 E-.1301
G1 X177.256 Y69.461 E-.09554
;WIPE_END
G1 E-.04 F2100
G1 Z.6 F720
G1 X178.158 Y69.222 F10800
G1 Z.2 F720
G1 E.8 F2100
M204 S800
G1 F1200
G1 X170.763 Y56.414 E.46372
G1 X183.571 Y49.018 E.46372
G1 X190.966 Y61.828 E.46376
G1 X178.21 Y69.192 E.46181
M204 S1000
G1 X177.875 Y69.505 F10800
;WIPE_START
G1 F8640
G1 X176.553 Y66.348 E-.76
;WIPE_END
G1 E-.04 F2100
G1 Z.6 F720
G1 X146.361 Y66.132 F10800
G1 Z.2 F720
G1 E.8 F2100
M204 S800
;TYPE:Perimeter
G1 F1200
G1 X150.38 Y81.126 E.48671
G1 X135.364 Y85.148 E.4874
G1 X131.342 Y70.135 E.48732
G1 X146.319 Y66.12 E.48618
M204 S1000
G1 X146.089 Y66.572 F10800
M204 S800
;TYPE:External perimeter
G1 F1200
G1 X149.918 Y80.859 E.46378
G1 X135.631 Y84.686 E.46375
G1 X131.804 Y70.401 E.46367
G1 X146.031 Y66.587 E.46181
M204 S1000
G1 X146.435 Y66.372 F10800
;WIPE_START
M73 Q2 S114
G1 F8640
G1 X146.896 Y69.763 E-.76
;WIPE_END
G1 E-.04 F2100
G1 Z.6 F720
G1 X123.234 Y73.596 F10800
M73 P2 R114
G1 Z.2 F720
G1 E.8 F2100
M204 S800
;TYPE:Perimeter
G1 F1200
G1 X123.234 Y89.116 E.48663
G1 X107.689 Y89.116 E.4874
G1 X107.689 Y73.573 E.48735
G1 X123.197 Y73.573 E.48624
M204 S1000
G1 X122.857 Y73.95 F10800
M204 S800
;TYPE:External perimeter
G1 F1200
G1 X122.857 Y88.739 E.46371
G1 X108.066 Y88.739 E.46375
G1 X108.066 Y73.95 E.46371
G1 X122.797 Y73.95 E.46187
M204 S1000
G1 X123.243 Y73.846 F10800
;WIPE_START
G1 F8640
G1 X122.81 Y77.241 E-.76
;WIPE_END
G1 E-.04 F2100
G1 Z.6 F720
G1 X123.234 Y92.645 F10800
G1 Z.2 F720
G1 E.8 F2100
M204 S800
;TYPE:Perimeter
G1 F1200
G1 X123.234 Y108.166 E.48664
G1 X107.689 Y108.166 E.4874
G1 X107.689 Y92.623 E.48736
G1 X123.197 Y92.623 E.48624
M204 S1000
G1 X122.857 Y93 F10800
M204 S800
;TYPE:External perimeter
G1 F1200
G1 X122.857 Y107.789 E.46371
G1 X108.066 Y107.789 E.46375
G1 X108.066 Y93 E.46371
G1 X122.797 Y93 E.46187
M204 S1000
G1 X123.243 Y92.896 F10800
;WIPE_START
G1 F8640
G1 X122.81 Y96.291 E-.76
;WIPE_END
G1 E-.04 F2100
G1 Z.6 F720
G1 X123.234 Y111.695 F10800
G1 Z.2 F720
G1 E.8 F2100
M204 S800
;TYPE:Perimeter
G1 F1200
